icon-themes/breeze_svg/cmd/sc_normalmultipanegui.svg

<svg viewBox="0 0 16 16" xmlns="http://www.w3.org/2000/svg">/&gt;<path d="m2 3v7l3 3h2v-1h-1v-3h-3v-5h10v3h1v-4zm10 4-1 1-1 1-2 2v1 1h2l.59375-.59375.40625-.40625 1-1 1-1 1-1zm-.3125 1.6875.59375.59375-.28125.28125-1.40625 1.40625v.03125l-1.28125 1.28125-.59375-.59375 1.875-1.90625z" fill="#4d4d4d"/></svg>

<svg xmlns="http://www.w3.org/2000/svg" viewBox="0 0 16 16">
     />
 <path 
     style="fill:#4d4d4d" 
     d="M 2 3 L 2 10 L 5 13 L 7 13 L 7 12 L 6 12 L 6 9 L 3 9 L 3 4 L 13 4 L 13 7 L 14 7 L 14 3 L 2 3 z M 12 7 L 11 8 L 10 9 L 8 11 L 8 12 L 8 13 L 10 13 L 10.59375 12.40625 L 11 12 L 12 11 L 13 10 L 14 9 L 12 7 z M 11.6875 8.6875 L 12.28125 9.28125 L 12 9.5625 L 10.59375 10.96875 L 10.59375 11 L 9.3125 12.28125 L 8.71875 11.6875 L 10.59375 9.78125 L 11.6875 8.6875 z "
     />
 </svg>
